build/svg/cmd/sc_resetattributes.svg

<?xml version="1.0" encoding="UTF-8" standalone="no"?>
<svg
   xmlns:dc="http://purl.org/dc/elements/1.1/"
   xmlns:cc="http://creativecommons.org/ns#"
   xmlns:rdf="http://www.w3.org/1999/02/22-rdf-syntax-ns#"
   xmlns:svg="http://www.w3.org/2000/svg"
   xmlns="http://www.w3.org/2000/svg"
   xmlns:sodipodi="http://sodipodi.sourceforge.net/DTD/sodipodi-0.dtd"
   xmlns:inkscape="http://www.inkscape.org/namespaces/inkscape"
   viewBox="0 0 16 16"
   version="1.1"
   id="svg6"
   sodipodi:docname="sc_resetattributes.svg"
   inkscape:version="0.92.5 (2060ec1f9f, 2020-04-08)"
   inkscape:export-filename="/home/jupiter007/Libreoffice yaru theme fullcolor/build/cmd/sc_resetattributes.png"
   inkscape:export-xdpi="95"
   inkscape:export-ydpi="95">
  <metadata
     id="metadata12">
    <rdf:RDF>
      <cc:Work
         rdf:about="">
        <dc:format>image/svg+xml</dc:format>
        <dc:type
           rdf:resource="http://purl.org/dc/dcmitype/StillImage" />
      </cc:Work>
    </rdf:RDF>
  </metadata>
  <defs
     id="defs10" />
  <sodipodi:namedview
     pagecolor="#ffffff"
     bordercolor="#666666"
     borderopacity="1"
     objecttolerance="10"
     gridtolerance="10"
     guidetolerance="10"
     inkscape:pageopacity="0"
     inkscape:pageshadow="2"
     inkscape:window-width="1920"
     inkscape:window-height="1011"
     id="namedview8"
     showgrid="false"
     inkscape:zoom="29.5"
     inkscape:cx="-4.8204026"
     inkscape:cy="6.3414631"
     inkscape:window-x="0"
     inkscape:window-y="32"
     inkscape:window-maximized="1"
     inkscape:current-layer="svg6" />
  <path
     sodipodi:nodetypes="ccccccccccccccccccccccc"
     inkscape:connector-curvature="0"
     id="path825"
     d="m 5,2.0000001 v 1 0.9999998 H 8.5722656 L 5,12 H 2 v 1 1 h 2.28125 2 H 10 11 V 13 12 H 7.4277344 L 11,3.9999999 h 3 v -0.9999998 -1 h -2.28125 -2 H 6 Z"
     style="opacity:0.6;fill:#000000;fill-opacity:1;stroke:#000000;stroke-width:2;stroke-linejoin:round;stroke-miterlimit:4;stroke-dasharray:none" />
  <path
     style="fill:#ffffff;fill-opacity:1"
     d="m 5,2.0000001 v 1 0.9999998 H 8.5722656 L 5,12 H 2 v 1 1 h 2.28125 2 H 10 11 V 13 12 H 7.4277344 L 11,3.9999999 h 3 v -0.9999998 -1 h -2.28125 -2 H 6 Z"
     id="path2"
     inkscape:connector-curvature="0"
     sodipodi:nodetypes="ccccccccccccccccccccccc" />
  <circle
     style="opacity:1;vector-effect:none;fill:#c7162b;fill-opacity:1;stroke:none;stroke-width:3.49999976;stroke-linecap:butt;stroke-linejoin:round;stroke-miterlimit:4;stroke-dasharray:none;stroke-dashoffset:0;stroke-opacity:1"
     id="path2644"
     cy="12.5"
     cx="12.5"
     r="3.5" />
  <path
     inkscape:connector-curvature="0"
     id="path1063"
     overflow="visible"
     font-weight="400"
     style="color:#000000;font-weight:400;line-height:normal;font-family:sans-serif;text-indent:0;text-align:start;text-decoration:none;text-decoration-line:none;text-decoration-style:solid;text-decoration-color:#000000;text-transform:none;white-space:normal;overflow:visible;isolation:auto;mix-blend-mode:normal;fill:#ffffff;fill-opacity:1;marker:none"
     d="M 10.378681,11.085786 11.792893,12.5 10.378681,13.914214 11.085786,14.62132 12.5,13.207107 13.914214,14.62132 14.62132,13.914214 13.207107,12.5 14.62132,11.085786 13.914214,10.37868 12.5,11.792893 11.085786,10.37868 Z" />
</svg>

<svg xmlns="http://www.w3.org/2000/svg" viewBox="0 0 16 16"><path d="M5 2v2h3.572L5 12H2v2h9v-2H7.428L11 4h3V2H6z" opacity=".6" stroke="#000" stroke-width="2" stroke-linejoin="round"/><path d="M5 2v2h3.572L5 12H2v2h9v-2H7.428L11 4h3V2H6z" fill="#fff"/><circle cy="12.5" cx="12.5" r="3.5" fill="#c7162b"/><path overflow="visible" font-weight="400" style="line-height:normal;text-indent:0;text-align:start;text-decoration-line:none;text-decoration-style:solid;text-decoration-color:#000;text-transform:none;white-space:normal;isolation:auto;mix-blend-mode:normal;marker:none" d="M10.379 11.086l1.414 1.414-1.414 1.414.707.707 1.414-1.414 1.414 1.414.707-.707-1.414-1.414 1.414-1.414-.707-.707-1.414 1.414-1.414-1.414z" color="#000" font-family="sans-serif" fill="#fff"/></svg>
